X:1
T: Carbray's Frolics
C:
R:Jig
Q:180
K:D
M:6/8
L:1/16
d2|c4A2 B2c2d2|A2G2F2 E4D2|E2F2E2 E4D2|E2F2E2 E4d2|c4A2 B2c2d2|A2G2F2 E4D2|F4D2 G2E2C2|D2E2D2 D4d2|
c4A2 B2c2d2|A2G2F2 E4D2|E2F2E2 E4D2|E2F2E2 E4d2|c4A2 B2c2d2|A2G2F2 E4D2|F4D2 G2E2C2|D2E2D2 D4FG|
A6 A2F2D2|F2E2D2 A2F2D2|E2D2E2 E4D2|E2F2E2 E4FG|A6 A2F2D2|F2E2D2 A2F2D2|F4D2 G2E2C2|D2E2D2 D4FG|
A6 A2F2D2|F2E2D2 A2F2D2|E2D2E2 E4D2|E2F2E2 E4FG|A6 A2F2D2|F2E2D2 A2F2D2|F4D2 G2E2C2|D2E2D2 D4||
